X: 231
T: Joe Yates Jig
B: australian dance tunes
M:6/8
L:1/8
R: Jig
Q: 3/8=100
K:D
V:1 
A||F2 D F2 D|F>FF F>ED|A>AF d>FF|E>FE E2 A|!
F>DD F>DD|F>FF F>ED|A2 F d2 F|A>AA A2:|!
f2 d e>AA|d>cB A>FD|fdf ecA|B>BB B2 g|!
fdd eAA|d>cB A>FD|D>FA dAF|1D>ED D2 g:|2 D>ED D3||
% abcbook-tune_id 62a078504132d5496f51a947


% abcbook-boost 0
% abcbook-tablature 
% abcbook-transpose 
% abcbook-lastupdated 1654683750434
% abcbook-soundfonts 
% abcbook-repeats 1


